images/vendors/vendor-tarp.svg

<svg clip-rule="evenodd" fill-rule="evenodd" stroke-linejoin="round" stroke-miterlimit="2" viewBox="0 0 140 220" xmlns="http://www.w3.org/2000/svg"><g fill-rule="nonzero"><path d="m0 10.859 4.799-1.888 10.424-.406-1.975-8.332-12.688-.233z" fill="#342d28" transform="matrix(1.27 0 0 1.27 71.4854 145.52)"/><path d="m0 1.548 2.554-1.703 1.857-5.265 4.292 1.223 1.361 3.346 2.942 1.47-1.858 6.116-8.748.233z" fill="#a58c80" transform="matrix(1.27 0 0 1.27 72.6767 154.874)"/><path d="m0 18.037h3.864l4.162-5.351-.744-11.446-7.423-1.24-4.614 1.835.149 10.851z" fill="#c9ac9a" transform="matrix(1.27 0 0 1.27 78.1656 129.849)"/><path d="m0-31.083 8.583 2.708 4.707 23.208-4.851 5.167.059-5.574-.31-1.646-1.491-7.529-1.864-9.501-5.103-2.083z" fill="#342d28" transform="matrix(1.27 0 0 1.27 79.5829 165.026)"/><path d="m0-19.249-5.022 1.887-.588 22.196-4.248-.749.832-23.918 9.334-4.25z" fill="#342d28" transform="matrix(1.27 0 0 1.27 79.3492 156.029)"/><path d="m0-39.612-5.701-2.352-6.271 5.719-6.764-4.877-5.189 3.563 3.485 4.605-.693 18.394-1.578 16.912 19.464-.225.032-16.354.332-20.001z" fill="#e49f7b" transform="matrix(1.27 0 0 1.27 96.4726 208.917)"/><path d="m0-11.676-44.531 7.726v3.95l44.531-3.776" fill="#c9ac9a" transform="matrix(1.27 0 0 1.27 75.8504 213.399)"/><path d="m-.273.392h6.393l.493 3.919-6.834-.686z" fill="#f3f1ec" transform="matrix(1.26009 -.158331 -.158331 -1.26009 11.6456 214.862)"/><path d="m0-11.676-49.298 7.726v3.95l27.942-2.251 25.306-5.475z" fill="#c9ac9a" transform="matrix(1.27 0 0 1.27 85.8834 218.415)"/><path d="m1.861-4.147h3.594l.197 6.387-3.849.89z" fill="#f3f1ec" transform="matrix(.286191 1.23733 1.23733 -.286191 18.8867 212.063)"/><path d="m0-2.763 4.059 11.75 25.673-4.175v-16.562h-17.875l-1.456 5.653z" fill="#f5f1e3" transform="matrix(1.27 0 0 1.27 54.5894 205.507)"/><path d="m0-22.084-2.456 15.202 3.917 8.542-2.647 2.791-5.052-10.88 2.727-20.106z" fill="#c9ac9a" transform="matrix(1.27 0 0 1.27 70.6637 195.038)"/><path d="m0 2.302 5.354 1.693 7.167-.568-1.124-2.727h-6.105l1.846.052-.304-2.445-4.698 1.464z" fill="#c9ac9a" transform="matrix(1.27 0 0 1.27 69.1295 197.681)"/><path d="m0-30.446 7.625 12.043-2.347 23.826h2.814l3.075-24.618-8.196-16.674z" fill="#c9ac9a" transform="matrix(1.27 0 0 1.27 92.7058 204.114)"/><path d="m.417 4.625h4.416l1.767-3.533-2.65-3.533z" fill="#a02e2c" transform="matrix(.567961 -1.13592 -1.13592 -.567961 80.51 202.292)"/><path d="m0-8.118-3.362 8.118h5.126" fill="#c9ac9a" transform="matrix(1.27 0 0 1.27 100.742 211.001)"/><path d="m2.184-9.249h8.832l-7.066 14.131-5.299-7.066z" fill="#fce887" transform="matrix(-.69249 1.38498 1.38498 .69249 61.8366 207.316)"/><path d="m.417 4.625h4.416l1.767-3.533-2.65-3.533-1.063-.475-3.565 7.002z" fill="#e49f7b" transform="matrix(.74994 -1.49988 -1.49988 -.74994 35.097421 216.2)"/><path d="m.417 4.625h4.416l1.767-3.533-2.65-3.533z" fill="#e49f7b" transform="matrix(.74994 -1.49988 -1.49988 -.74994 25.287521 216.2)"/><path d="m.417 4.625h4.416l1.767-3.533-2.65-3.533z" fill="#a02e2c" transform="matrix(.567961 -1.13592 -1.13592 -.567961 19.879521 219.088)"/><path d="m.417 4.625h4.416l1.767-3.533-2.65-3.533z" fill="#77272c" transform="matrix(.724656 -1.44931 -1.44931 -.724656 27.883521 219.404)"/><path d="m.417 4.625h4.416l1.767-3.533-2.65-3.533z" fill="#a02e2c" transform="matrix(.724656 -1.44931 -1.44931 -.724656 38.983121 219.404)"/><path d="m.417 4.625h4.416l1.767-3.533-2.65-3.533-1.063-.475-3.565 7.002z" fill="#93b873" transform="matrix(-.74994 -1.49988 1.49988 -.74994 76.6441 217.24491)"/><path d="m.417 4.625h4.416l1.767-3.533-2.65-3.533z" fill="#93b873" transform="matrix(-.74994 -1.49988 1.49988 -.74994 86.454 217.24491)"/><path d="m.417 4.625h4.416l1.767-3.533-2.65-3.533z" fill="#71974f" transform="matrix(-.567961 -1.13592 1.13592 -.567961 91.862 220.13291)"/><path d="m.417 4.625h4.416l1.767-3.533-2.65-3.533z" fill="#4b8046" transform="matrix(-.724656 -1.44931 1.44931 -.724656 83.858 220.44891)"/><path d="m.417 4.625h4.416l1.767-3.533-2.65-3.533z" fill="#4b8046" transform="matrix(-.724656 -1.44931 1.44931 -.724656 72.7584 220.44891)"/><path d="m.417 4.625h4.416l1.767-3.533-2.65-3.533-1.063-.475-3.565 7.002z" fill="#93b873" transform="matrix(-.74994 -1.49988 1.49988 -.74994 86.7761 217.24491)"/><path d="m.417 4.625h4.416l1.767-3.533-2.65-3.533z" fill="#93b873" transform="matrix(-.74994 -1.49988 1.49988 -.74994 96.586 217.24491)"/><path d="m.417 4.625h4.416l1.767-3.533-2.65-3.533z" fill="#71974f" transform="matrix(-.567961 -1.13592 1.13592 -.567961 101.994 220.13291)"/><path d="m.417 4.625h4.416l1.767-3.533-2.65-3.533z" fill="#4b8046" transform="matrix(-.724656 -1.44931 1.44931 -.724656 93.99 220.44891)"/><path d="m.417 4.625h4.416l1.767-3.533-2.65-3.533z" fill="#71974f" transform="matrix(-.724656 -1.44931 1.44931 -.724656 82.8904 220.44891)"/><path d="m.417 4.625h4.416l1.767-3.533-2.65-3.533-1.063-.475-3.565 7.002z" fill="#93b873" transform="matrix(-.74994 -1.49988 1.49988 -.74994 107.3421 217.24491)"/><path d="m.417 4.625h4.416l1.767-3.533-2.65-3.533z" fill="#93b873" transform="matrix(-.74994 -1.49988 1.49988 -.74994 117.152 217.24491)"/><path d="m.417 4.625h4.416l1.767-3.533-2.65-3.533z" fill="#71974f" transform="matrix(-.567961 -1.13592 1.13592 -.567961 122.56 220.13291)"/><path d="m.417 4.625h4.416l1.767-3.533-2.65-3.533z" fill="#4b8046" transform="matrix(-.724656 -1.44931 1.44931 -.724656 114.556 220.44891)"/><path d="m.417 4.625h4.416l1.767-3.533-2.65-3.533z" fill="#71974f" transform="matrix(-.724656 -1.44931 1.44931 -.724656 103.4564 220.44891)"/></g><path d="m9.8 214.98335h120.396v5.0165h-120.396z" fill="#e0cea8" stroke-width="1.27"/></svg>

<?xml version="1.0" encoding="UTF-8" standalone="no"?>
<!DOCTYPE svg PUBLIC "-//W3C//DTD SVG 1.1//EN" "http://www.w3.org/Graphics/SVG/1.1/DTD/svg11.dtd">
<svg width="100%" height="100%" viewBox="0 0 140 220" version="1.1" xmlns="http://www.w3.org/2000/svg" xmlns:xlink="http://www.w3.org/1999/xlink" xml:space="preserve" xmlns:serif="http://www.serif.com/" style="fill-rule:evenodd;clip-rule:evenodd;stroke-linejoin:round;stroke-miterlimit:2;">
    <g id="vendor-tarp">
        <g transform="matrix(1.27,0,0,1.27,71.4854,145.52)">
            <path d="M0,10.859L4.799,8.971L15.223,8.565L13.248,0.233L0.56,0L0,10.859Z" style="fill:rgb(52,45,40);fill-rule:nonzero;"/>
        </g>
        <g transform="matrix(1.27,0,0,1.27,72.6767,154.874)">
            <path d="M0,1.548L2.554,-0.155L4.411,-5.42L8.703,-4.197L10.064,-0.851L13.006,0.619L11.148,6.735L2.4,6.968L0,1.548Z" style="fill:rgb(165,140,128);fill-rule:nonzero;"/>
        </g>
        <g transform="matrix(1.27,0,0,1.27,78.1656,129.849)">
            <path d="M0,18.037L3.864,18.037L8.026,12.686L7.282,1.24L-0.141,0L-4.755,1.835L-4.606,12.686L0,18.037Z" style="fill:rgb(201,172,154);fill-rule:nonzero;"/>
        </g>
        <g transform="matrix(1.27,0,0,1.27,79.5829,165.026)">
            <path d="M0,-31.083L8.583,-28.375L13.29,-5.167L8.439,0L8.498,-5.574L8.188,-7.22L6.697,-14.749L4.833,-24.25L-0.27,-26.333L0,-31.083Z" style="fill:rgb(52,45,40);fill-rule:nonzero;"/>
        </g>
        <g transform="matrix(1.27,0,0,1.27,79.3492,156.029)">
            <path d="M0,-19.249L-5.022,-17.362L-5.61,4.834L-9.858,4.085L-9.026,-19.833L0.308,-24.083L0,-19.249Z" style="fill:rgb(52,45,40);fill-rule:nonzero;"/>
        </g>
        <g transform="matrix(1.27,0,0,1.27,96.4726,208.917)">
            <path d="M0,-39.612L-5.701,-41.964L-11.972,-36.245L-18.736,-41.122L-23.925,-37.559L-20.44,-32.954L-21.133,-14.56L-22.711,2.352L-3.247,2.127L-3.215,-14.227L-2.883,-34.228L0,-39.612Z" style="fill:rgb(228,159,123);fill-rule:nonzero;"/>
        </g>
        <g transform="matrix(1.27,0,0,1.27,75.8504,213.399)">
            <path d="M0,-11.676L-44.531,-3.95L-44.531,0L0,-3.776" style="fill:rgb(201,172,154);fill-rule:nonzero;"/>
        </g>
        <g transform="matrix(1.26009,-0.158331,-0.158331,-1.26009,11.6456,214.862)">
            <path d="M-0.273,0.392L6.12,0.392L6.613,4.311L-0.221,3.625L-0.273,0.392Z" style="fill:rgb(243,241,236);fill-rule:nonzero;"/>
        </g>
        <g transform="matrix(1.27,0,0,1.27,85.8834,218.415)">
            <path d="M0,-11.676L-49.298,-3.95L-49.298,0L-21.356,-2.251L3.95,-7.726L0,-11.676Z" style="fill:rgb(201,172,154);fill-rule:nonzero;"/>
        </g>
        <g transform="matrix(0.286191,1.23733,1.23733,-0.286191,18.8867,212.063)">
            <path d="M1.861,-4.147L5.455,-4.147L5.652,2.24L1.803,3.13L1.861,-4.147Z" style="fill:rgb(243,241,236);fill-rule:nonzero;"/>
        </g>
        <g transform="matrix(1.27,0,0,1.27,54.5894,205.507)">
            <path d="M0,-2.763L4.059,8.987L29.732,4.812L29.732,-11.75L11.857,-11.75L10.401,-6.097L0,-2.763Z" style="fill:rgb(245,241,227);fill-rule:nonzero;"/>
        </g>
        <g transform="matrix(1.27,0,0,1.27,70.6637,195.038)">
            <path d="M0,-22.084L-2.456,-6.882L1.461,1.66L-1.186,4.451L-6.238,-6.429L-3.511,-26.535L0,-22.084Z" style="fill:rgb(201,172,154);fill-rule:nonzero;"/>
        </g>
        <g transform="matrix(1.27,0,0,1.27,69.1295,197.681)">
            <path d="M0,2.302L5.354,3.995L12.521,3.427L11.397,0.7L5.292,0.7L7.138,0.752L6.834,-1.693L2.136,-0.229L0,2.302Z" style="fill:rgb(201,172,154);fill-rule:nonzero;"/>
        </g>
        <g transform="matrix(1.27,0,0,1.27,92.7058,204.114)">
            <path d="M0,-30.446L7.625,-18.403L5.278,5.423L8.092,5.423L11.167,-19.195L2.971,-35.869L0,-30.446Z" style="fill:rgb(201,172,154);fill-rule:nonzero;"/>
        </g>
        <g transform="matrix(0.567961,-1.13592,-1.13592,-0.567961,80.51,202.292)">
            <path d="M0.417,4.625L4.833,4.625L6.6,1.092L3.95,-2.441L0.417,4.625Z" style="fill:rgb(160,46,44);fill-rule:nonzero;"/>
        </g>
        <g transform="matrix(1.27,0,0,1.27,100.742,211.001)">
            <path d="M0,-8.118L-3.362,0L1.764,0" style="fill:rgb(201,172,154);fill-rule:nonzero;"/>
        </g>
        <g transform="matrix(0.567961,-1.13592,-1.13592,-0.567961,32.3445,215.543)">
            <path d="M0.417,4.625L4.833,4.625L6.6,1.092L3.95,-2.441L0.417,4.625Z" style="fill:rgb(228,159,123);fill-rule:nonzero;"/>
        </g>
        <g transform="matrix(0.567961,-1.13592,-1.13592,-0.567961,69.619,220.623)">
            <path d="M0.417,4.625L4.833,4.625L6.6,1.092L3.95,-2.441L0.417,4.625Z" style="fill:rgb(75,128,70);fill-rule:nonzero;"/>
        </g>
        <g transform="matrix(-0.567961,1.13592,1.13592,0.567961,56.5691,207.723)">
            <path d="M2.184,-9.249L11.016,-9.249L3.95,4.882L-1.349,-2.184L2.184,-9.249Z" style="fill:rgb(252,232,135);fill-rule:nonzero;"/>
        </g>
        <g transform="matrix(0.567961,-1.13592,-1.13592,-0.567961,74.699,215.543)">
            <path d="M0.417,4.625L4.833,4.625L6.6,1.092L3.95,-2.441L0.417,4.625Z" style="fill:rgb(147,184,115);fill-rule:nonzero;"/>
        </g>
        <g transform="matrix(0.567961,-1.13592,-1.13592,-0.567961,89.939,215.543)">
            <path d="M0.417,4.625L4.833,4.625L6.6,1.092L3.95,-2.441L0.417,4.625Z" style="fill:rgb(147,184,115);fill-rule:nonzero;"/>
        </g>
        <g transform="matrix(0.567961,-1.13592,-1.13592,-0.567961,78.509,218.083)">
            <path d="M0.417,4.625L4.833,4.625L6.6,1.092L3.95,-2.441L0.417,4.625Z" style="fill:rgb(75,128,70);fill-rule:nonzero;"/>
        </g>
        <g transform="matrix(0.567961,-1.13592,-1.13592,-0.567961,84.859,219.353)">
            <path d="M0.417,4.625L4.833,4.625L6.6,1.092L3.95,-2.441L0.417,4.625Z" style="fill:rgb(113,151,79);fill-rule:nonzero;"/>
        </g>
        <g transform="matrix(0.567961,-1.13592,-1.13592,-0.567961,92.479,218.083)">
            <path d="M0.417,4.625L4.833,4.625L6.6,1.092L3.95,-2.441L0.417,4.625Z" style="fill:rgb(75,128,70);fill-rule:nonzero;"/>
        </g>
        <g transform="matrix(0.567961,-1.13592,-1.13592,-0.567961,24.915,215.543)">
            <path d="M0.417,4.625L4.833,4.625L6.6,1.092L3.95,-2.441L0.417,4.625Z" style="fill:rgb(228,159,123);fill-rule:nonzero;"/>
        </g>
        <g transform="matrix(0.567961,-1.13592,-1.13592,-0.567961,19.835,220.623)">
            <path d="M0.417,4.625L4.833,4.625L6.6,1.092L3.95,-2.441L0.417,4.625Z" style="fill:rgb(160,46,44);fill-rule:nonzero;"/>
        </g>
        <g transform="matrix(0.567961,-1.13592,-1.13592,-0.567961,27.455,218.083)">
            <path d="M0.417,4.625L4.833,4.625L6.6,1.092L3.95,-2.441L0.417,4.625Z" style="fill:rgb(119,39,44);fill-rule:nonzero;"/>
        </g>
        <g transform="matrix(0.567961,-1.13592,-1.13592,-0.567961,36.1545,218.083)">
            <path d="M0.417,4.625L4.833,4.625L6.6,1.092L3.95,-2.441L0.417,4.625Z" style="fill:rgb(160,46,44);fill-rule:nonzero;"/>
        </g>
        <g transform="matrix(0.567961,-1.13592,-1.13592,-0.567961,100.099,218.083)">
            <path d="M0.417,4.625L4.833,4.625L6.6,1.092L3.95,-2.441L0.417,4.625Z" style="fill:rgb(147,184,115);fill-rule:nonzero;"/>
        </g>
        <g transform="matrix(0.567961,-1.13592,-1.13592,-0.567961,110.195,215.543)">
            <path d="M0.417,4.625L4.833,4.625L6.6,1.092L3.95,-2.441L0.417,4.625Z" style="fill:rgb(147,184,115);fill-rule:nonzero;"/>
        </g>
        <g transform="matrix(0.567961,-1.13592,-1.13592,-0.567961,105.115,219.353)">
            <path d="M0.417,4.625L4.833,4.625L6.6,1.092L3.95,-2.441L0.417,4.625Z" style="fill:rgb(113,151,79);fill-rule:nonzero;"/>
        </g>
        <g transform="matrix(0.567961,-1.13592,-1.13592,-0.567961,112.736,218.083)">
            <path d="M0.417,4.625L4.833,4.625L6.6,1.092L3.95,-2.441L0.417,4.625Z" style="fill:rgb(75,128,70);fill-rule:nonzero;"/>
        </g>
        <g transform="matrix(0.567961,-1.13592,-1.13592,-0.567961,120.355,218.083)">
            <path d="M0.417,4.625L4.833,4.625L6.6,1.092L3.95,-2.441L0.417,4.625Z" style="fill:rgb(147,184,115);fill-rule:nonzero;"/>
        </g>
        <g transform="matrix(1.27,0,0,1.27,-1595.48,-302.04)">
            <rect x="1264" y="407.105" width="94.8" height="3.95" style="fill:rgb(224,206,168);"/>
        </g>
        <g transform="matrix(1.27,0,0,1.27,94.0792,214.983)">
            <path d="M0,3.95L28.44,0L28.44,3.95L0,3.95Z" style="fill:rgb(206,173,128);fill-rule:nonzero;"/>
        </g>
        <g transform="matrix(1.27,0,0,1.27,9.802,214.983)">
            <path d="M0,3.95L52.14,0L52.14,3.95L0,3.95Z" style="fill:rgb(206,173,128);fill-rule:nonzero;"/>
        </g>
    </g>
</svg>
